X:4946
T:Fair Trade
R:reel
C:Paul S. Cranford
O:20th Century Cape Breton
D:The Lighthouse, Cranford Publications
B:The Lighthouse Collection, ISBN 0-9691181-5-5
N:Contacts ...
N:..... Cranford Publications <http://www.cranfordpub.com>
H:Composed for Daniel Michael Collins
Z:This abc transcription is for personal use only,
Z:provided this notice remains attached.
Z:Used by permission of the composer and publisher.
Z:Paul Stewart Cranford 
L:1/8
Q:333
M:C|
K:G
GA|B2 BG AEE2|DEGB AGEA|BdBG AGEG| DEGB A2:|!
|:GA|B2 de agg2|bage dBAG|Bdeg agg2|bagd e2 GA|!
Bdeg agg2|bage dBAG|(3(Bcd) BG AGEG|DEGB A2:|!
